!!!OTL: 352. Des Trinkers Testament.
!!!COM: Volksweise
!!!ARE: Europa, Mitteleuropa, Deutschland
!!!SCT: B0352
!!!TXL: @@DE
!!!YEM: Copyright 1995, estate of Helmut Schaffrath.
**kern	**text
*ICvox	*
*Ivox	*
*clefG2	*
*M3/4	*
*k[b-]	*
*F:	*
!LO:TX:a:t=Gemüthlich.	!
{4c	Jhr
=1	=1
8.a	Brü-
16g	-der,
8f	wenn
8f	ich
8g	nicht
8a	mehr
=2	=2
8.ccL	trin-
16b-J	.
4g}	-ke
{4c	und
=3	=3
8.a	matt
!LO:N:vis=8	!
16g	von
8f	Gicht
8f	und
8g	Po-
8a	-da-
=4	=4
4g	-gra
4r}	.
{4c	hier
=5	=5
8.a	auf
16g	das
8f	Kran-
8f	-ken-
8g	-la-
8a	-ger
=6	=6
(8.b-L	ſin-
16ddJ)	.
4ff}	-ke,
{8.eeL	ſo
16ddJ	.
=7	=7
8.cc	glaubt,
16dd	es
8cc	iſt
8a	mein
8b-/	En-
8g	-de
=8	=8
4f	da.
8r}	.
{8cc	Vi-
8b-	-val-
8a	-le-
=9	=9
8.g	-ral-
16g	-le-
8g	-ra,
8g	vi-
8a	-val-
8b-/	-le-
=10	=10
8.dd	-ral-
16cc	-le-
8cc}	-ra,
{8cc	vi-
8b-	-val-
8a	-le-
=11	=11
8.g	-ral-
16g	-le-
8g	-ra,
8b-/	vi-
8a	-val-
8g	-le-
=12	=12
4f	-ra.
4r}	.
==	==
!!!AGN: Trink - Lied
!!!GTL: Wein- und Trinklieder
!!!ONB: ESAC (Essen Associative Code) Database: BOEHME
!!!AMT: simple triple
!!!AIN: vox
!!!EED: Helmut Schaffrath
!!!EEV: 1.0
!!@@COMMENT:"Das Lied iſt nicht von Langbein, ſondern ſchon 1767 gedruckt. Wie Hoffmann (volksth.
!!Lieder Nr. 533, Nachtrag) erwieſen hat, ſteht der Text in Verſuche in Scherʒhaften und Moraliſchen
!!Gedichten", von einem Officier *** Celle 1767. S. 92. - Mit einer Volksweiſe (um 1810) giebt
!!das Lied Erk in ſeinem Liederſchatʒ II, danach hier. Eine andere Mel. im Allgem. Kommersbuch."
!!@@END:
!!!URL-scan: https://archive.org/details/BoehmeVtLieder1895/page/n293/mode/2up
!!!ENC: Anna Maria Matuszewska
!!!EEV: 2024/05/07
*-	*-
